X:241
T:Old Morpeth Rant
T: Morpeth Rant (Tom Hughes)
R:polka 32 rant reel
C:Trad
M:4/4
L:1/8
K:G
D2|: G2DB, G,B,DB,| G,CEC G,B,DB,| G2AB cBAG| F2A2A2 D2|
|G2DB, G,B,DB,| G,CEC G,B,DB,| G2AB cBAG|1 D2G2G2 D2:|2 D2G2G2 Bd|
|:gf ed B2G2 |cB AG F2D2|E2E2cBAG| F2A2A2 D2|
|E2E2cBAG| F2F2dcBA| Gg fg ecAF|1 A2G2G2 Bd:|2 A2G2G2 D2|

